icons/invision-line.svg

<svg xmlns="http://www.w3.org/2000/svg" width="24" height="24" fill="none"><g clip-path="url(#a)"><g><path fill="#121212" d="M4 3H20C20.2652 3 20.5196 3.10536 20.7071 3.29289C20.8946 3.48043 21 3.73478 21 4V20C21 20.2652 20.8946 20.5196 20.7071 20.7071C20.5196 20.8946 20.2652 21 20 21H4C3.73478 21 3.48043 20.8946 3.29289 20.7071C3.10536 20.5196 3 20.2652 3 20V4C3 3.73478 3.10536 3.48043 3.29289 3.29289C3.48043 3.10536 3.73478 3 4 3ZM5 5V19H19V5H5ZM6.988 14.065L7.758 10.794H6.564L6.926 9.404H9.794L8.662 14.074C8.59825 14.309 8.56267 14.5506 8.556 14.794C8.556 15.092 8.697 15.18 8.918 15.231C9.053 15.263 10.126 15.241 10.709 13.891L11.453 10.794H10.245L10.608 9.404H13.188L12.857 10.982C13.309 10.102 14.215 9.267 15.105 9.267C16.055 9.267 16.841 9.971 16.841 11.322C16.841 11.667 16.795 12.043 16.675 12.467L16.192 14.272C16.1482 14.4309 16.1227 14.5943 16.116 14.759C16.116 15.073 16.237 15.229 16.463 15.229C16.69 15.229 16.977 15.057 17.309 14.099L17.973 14.366C17.58 15.795 16.871 16.391 15.98 16.391C14.939 16.391 14.441 15.748 14.441 14.868C14.441 14.618 14.471 14.35 14.547 14.083L15.045 12.23C15.105 12.026 15.12 11.838 15.12 11.665C15.12 11.069 14.773 10.707 14.215 10.707C13.505 10.707 13.037 11.237 12.796 12.257L11.83 16.289H10.14L10.443 15.022C9.946 15.872 9.256 16.397 8.405 16.397C7.379 16.397 6.896 15.782 6.896 14.855C6.896 14.62 6.926 14.332 6.986 14.065H6.988ZM8.625 8.625C8.32663 8.625 8.04048 8.50647 7.8295 8.2955C7.61853 8.08452 7.5 7.79837 7.5 7.5C7.5 7.20163 7.61853 6.91548 7.8295 6.7045C8.04048 6.49353 8.32663 6.375 8.625 6.375C8.92337 6.375 9.20952 6.49353 9.4205 6.7045C9.63147 6.91548 9.75 7.20163 9.75 7.5C9.75 7.79837 9.63147 8.08452 9.4205 8.2955C9.20952 8.50647 8.92337 8.625 8.625 8.625Z"/></g></g><defs><clipPath id="a"><rect width="24" height="24" fill="white"/></clipPath></defs></svg>

<svg width="24" height="24" fill="none" xmlns="http://www.w3.org/2000/svg"><g clip-path="url(#a)"><path d="M4 3h16a1 1 0 0 1 1 1v16a1 1 0 0 1-1 1H4a1 1 0 0 1-1-1V4a1 1 0 0 1 1-1Zm1 2v14h14V5H5Zm1.988 9.065.77-3.271H6.564l.362-1.39h2.868l-1.132 4.67a3.07 3.07 0 0 0-.106.72c0 .298.141.386.362.437.135.032 1.208.01 1.791-1.34l.744-3.097h-1.208l.363-1.39h2.58l-.331 1.578c.452-.88 1.358-1.715 2.248-1.715.95 0 1.736.704 1.736 2.055 0 .345-.046.721-.166 1.145l-.483 1.805c-.044.159-.07.322-.076.487 0 .314.121.47.347.47.227 0 .514-.172.846-1.13l.664.267c-.393 1.429-1.102 2.025-1.993 2.025-1.041 0-1.539-.643-1.539-1.523 0-.25.03-.518.106-.785l.498-1.853a1.96 1.96 0 0 0 .075-.565c0-.596-.347-.958-.905-.958-.71 0-1.178.53-1.419 1.55l-.966 4.032h-1.69l.303-1.267c-.497.85-1.187 1.375-2.038 1.375-1.026 0-1.509-.615-1.509-1.542 0-.235.03-.523.09-.79h.002Zm1.637-5.44a1.125 1.125 0 1 1 0-2.25 1.125 1.125 0 0 1 0 2.25Z" /></g><defs><clipPath id="a"><path fill="#fff" d="M0 0h24v24H0z"/></clipPath></defs></svg>
